X:22
T:O Elez ar baradoz
C:Rioual
M:6/8
L:1/8
K:Em
B,|E2G FGA|G2F E2G|F2E DEF|E3- Ez B,|E2G FGA|G2F E2G|F2E DEF|E3- Ez E|
F2B ABG|F3- Fz E|F2B A2G|F3- Fz F/G/|A2F B2E|E3 D2G|F2E DEF|E3- Ezz||
